X:1
T: The Crooket Horned Ewie
C:
R:Strathspey
Q: 128
K:A
M:4/4
L:1/16
|:E2|EA3 A3B G3A B3G|EA3 A3c d3B c3A|d3c B3A G3A B3G|EA3 A3c B3G A2E2|
EA3 A3B G3A B3G|EA3 A3c d3B c3A|d3c B3A G3A B3G|EA3 A3c B3G A2d2|
ce3 e3f d3e d3B|c3e e3f =g3e a4|=g3a =g2e2 d2B2 =G3B|E3A A3c B3G A2d2|
ce3 e3f d3e d3B|c3e e3f =g3e a4|=g3a =g2e2 d2B2 =G3B|E3A A3c B3G A2:|
